X:52
T: Willafjord
R: reel
C: Ian Burns
M: C|
L: 1/8
K: Dmaj
   D2 | "D" A2FA2 DFA | "G" B2GB2 DGB | "D" A2FA2 DFA | "G" EFGA "A" GFED |
     "D" A2FA2 DFA | "G" B2GB2 DGB | "A" ABcd efge | "D" f2d2 d2 :|
|: e2 | "D" f2ef2 fdf | "G" gfaf gfed | "D" f2df2 Adf | "A" ABcd efge |
     "D" f2ef2 fdf | "G" gfaf gfed | "A" ABcd efge | "D" f2d2 d2 :|


